X:1
T: Frank Sutherland
C:
R:Reel
Q: 232
K:A
M:4/4
L:1/8
|:ed|cd ec Aa ga|fg af ec fe|dB ed cA dc|Be ^df e1/2e1/2e e=d|
cd ec Aa ga|fg af ec fe|dB ed cA dc|Bd cB A2:|
|:GA|Be de ce Be|de fg a2 fg|ag fe de fg|fe dc BA GA|
Be de ce Be|de fg a2 fg|ag fe de fg|ed ef e2:|
